webapp/client/src/assets/icons/vorsorge_icon.svg

<svg width="35" height="41" viewBox="0 0 35 41" fill="none" xmlns="http://www.w3.org/2000/svg">
<path d="M17.275 0.699997C12.9613 0.699997 6.82692 2.16274 3.57504 2.99065C1.71207 3.46478 0.399994 5.15898 0.399994 7.07756V16.1687C0.399994 23.1287 4.52844 29.0257 8.52438 33.1866C12.5203 37.3474 16.5279 39.8608 16.5279 39.8608L17.286 40.3332L18.0331 39.8498C18.0331 39.8498 22.0335 37.2806 26.0256 33.0932C30.0177 28.9058 34.15 23.0212 34.15 16.1687V7.07756C34.15 5.15836 32.8386 3.46881 30.9804 2.99065H30.9749C27.7232 2.16274 21.5887 0.699997 17.275 0.699997ZM17.275 3.5125C20.9136 3.5125 27.0986 4.90614 30.2773 5.71526C30.9111 5.87834 31.3375 6.42614 31.3375 7.07756V16.1687C31.3375 21.8656 27.7354 27.2288 23.9931 31.1541C20.6275 34.6843 17.9117 36.423 17.2695 36.8505C16.6282 36.4331 13.919 34.7429 10.5569 31.242C6.81843 27.3493 3.21249 21.9944 3.21249 16.1687V7.07756C3.21249 6.41989 3.63266 5.87675 4.26718 5.71526C7.44468 4.90629 13.6349 3.5125 17.275 3.5125ZM27.5307 9.90105L15.5172 21.9146L9.12863 15.526L7.14011 17.5146L15.5172 25.8916L29.5193 11.8896L27.5307 9.90105Z" fill="#0B0C0C"/>
</svg>

<svg width="35" height="41" viewBox="0 0 35 41" fill="none" xmlns="http://www.w3.org/2000/svg">
    <path d="M17.275.7c-4.314 0-10.448 1.463-13.7 2.29A4.23 4.23 0 0 0 .4 7.079v9.09c0 6.96 4.128 12.858 8.124 17.019 3.996 4.16 8.004 6.674 8.004 6.674l.758.472.747-.483s4-2.57 7.993-6.757c3.992-4.187 8.124-10.072 8.124-16.924V7.078a4.233 4.233 0 0 0-3.17-4.087h-.005C27.723 2.163 21.589.7 17.275.7Zm0 2.813c3.639 0 9.824 1.393 13.002 2.202.634.163 1.06.711 1.06 1.363v9.09c0 5.698-3.602 11.06-7.344 14.986-3.365 3.53-6.081 5.269-6.723 5.696-.642-.417-3.351-2.107-6.713-5.608-3.739-3.893-7.345-9.248-7.345-15.073V7.078c0-.658.42-1.201 1.055-1.363 3.178-.809 9.368-2.202 13.008-2.202ZM27.531 9.9 15.517 21.915 9.13 15.526 7.14 17.515l8.377 8.377L29.52 11.89 27.531 9.9Z"
          fill="#0B0C0C"/>
</svg>
